Papirus/22x22/panel/slack-indicator.svg

<?xml version="1.0" encoding="UTF-8" standalone="no"?>
<svg
   xmlns:dc="http://purl.org/dc/elements/1.1/"
   xmlns:cc="http://creativecommons.org/ns#"
   xmlns:rdf="http://www.w3.org/1999/02/22-rdf-syntax-ns#"
   xmlns:svg="http://www.w3.org/2000/svg"
   xmlns="http://www.w3.org/2000/svg"
   height="22"
   width="22"
   viewBox="0 0 22 22"
   id="svg2"
   version="1.1">
  <defs
     id="defs9" />
  <metadata
     id="metadata10">
    <rdf:RDF>
      <cc:Work
         rdf:about="">
        <dc:format>
                    image/svg+xml
                </dc:format>
        <dc:type
           rdf:resource="http://purl.org/dc/dcmitype/StillImage" />
        <dc:title></dc:title>
      </cc:Work>
    </rdf:RDF>
  </metadata>
  <path
     style="opacity:1;fill:#ffffff;fill-opacity:1;stroke:none;stroke-width:2;stroke-linecap:round;stroke-linejoin:round;stroke-miterlimit:4;stroke-dasharray:none;stroke-opacity:1"
     d="m 12.053777,3.8654886 c -0.128703,-0.017764 -0.263692,-0.0089 -0.397472,0.026951 -0.535123,0.1433859 -0.849524,0.6890626 -0.706138,1.2241857 L 11.467709,7.0488356 7.6032894,8.0839196 7.0857473,6.1517095 C 6.9423616,5.6165866 6.3971903,5.3002993 5.8620674,5.443685 5.3269445,5.5870709 5.012038,6.1346342 5.1554239,6.6697571 l 0.5180475,1.9303235 -1.93221,0.5175416 c -0.5351229,0.143386 -0.8500294,0.69095 -0.7066437,1.2260728 0.143386,0.535121 0.6890625,0.849524 1.2241857,0.706137 l 1.9322101,-0.517542 1.035084,3.86442 -1.9322101,0.517542 c -0.5351228,0.143386 -0.8514103,0.688557 -0.7080245,1.22368 0.1433859,0.535123 0.6909491,0.850029 1.226072,0.706644 l 1.9303235,-0.518047 0.517542,1.932209 c 0.1433858,0.535123 0.6909487,0.85003 1.2260726,0.706644 0.535121,-0.143385 0.849523,-0.689062 0.706137,-1.224186 l -0.517542,-1.932209 3.864421,-1.035084 0.517542,1.932209 c 0.143386,0.535123 0.688557,0.85141 1.223679,0.708025 0.535123,-0.143386 0.850029,-0.690948 0.706645,-1.226073 l -0.518048,-1.930323 1.932209,-0.517542 c 0.535123,-0.143386 0.85003,-0.69095 0.706644,-1.226072 -0.143385,-0.535124 -0.689063,-0.849524 -1.224186,-0.706138 L 14.951165,12.325531 13.916081,8.4611116 15.84829,7.9435693 C 16.383413,7.8001835 16.699702,7.2550125 16.556315,6.7198895 16.412929,6.1847666 15.865366,5.8698603 15.330242,6.0132458 L 13.39992,6.5312936 12.882378,4.5990835 C 12.774838,4.1977411 12.439882,3.9187792 12.053777,3.8654886 Z m -0.06802,5.1136705 1.035084,3.8644199 -3.86442,1.035084 -1.035084,-3.86442 3.86442,-1.0350839 z"
     id="path4251" />
</svg>

<?xml version="1.0" encoding="UTF-8" standalone="no"?>
<svg id="svg2" xmlns:rdf="http://www.w3.org/1999/02/22-rdf-syntax-ns#" xmlns="http://www.w3.org/2000/svg" height="22" width="22" version="1.1" xmlns:cc="http://creativecommons.org/ns#" viewBox="0 0 22 22" xmlns:dc="http://purl.org/dc/elements/1.1/">
 <metadata id="metadata10">
  <rdf:RDF>
   <cc:Work rdf:about="">
    <dc:format>image/svg+xml</dc:format>
    <dc:type rdf:resource="http://purl.org/dc/dcmitype/StillImage"/>
    <dc:title/>
   </cc:Work>
  </rdf:RDF>
 </metadata>
 <path id="path4251" d="m12.054 3.8655c-0.1287-0.017764-0.26369-0.0089-0.39747 0.026951-0.53512 0.14339-0.84952 0.68906-0.70614 1.2242l0.518 1.9321-3.8647 1.0351-0.5176-1.9322c-0.1433-0.5351-0.6885-0.8514-1.2236-0.708-0.5352 0.1434-0.8501 0.6909-0.7067 1.2261l0.51805 1.9303-1.9322 0.51754c-0.53512 0.14339-0.85003 0.69095-0.70664 1.2261 0.14339 0.53512 0.68906 0.84952 1.2242 0.70614l1.9322-0.51754 1.0351 3.8644-1.9322 0.51754c-0.53512 0.14339-0.85141 0.68856-0.70802 1.2237 0.14339 0.53512 0.69095 0.85003 1.2261 0.70664l1.9303-0.51805 0.51754 1.9322c0.14339 0.53512 0.69095 0.85003 1.2261 0.70664 0.53512-0.14338 0.84952-0.68906 0.70614-1.2242l-0.51754-1.9322 3.8644-1.0351 0.51754 1.9322c0.14339 0.53512 0.68856 0.85141 1.2237 0.70802 0.53512-0.14339 0.85003-0.69095 0.70664-1.2261l-0.51805-1.9303 1.9322-0.51754c0.53512-0.14339 0.85003-0.69095 0.70664-1.2261-0.14338-0.53512-0.68906-0.84952-1.2242-0.70614l-1.931 0.519-1.035-3.8649 1.932-0.5175c0.535-0.1434 0.852-0.6886 0.708-1.2237-0.143-0.5351-0.691-0.85-1.226-0.7067l-1.93 0.5181-0.518-1.9322c-0.107-0.4014-0.442-0.6803-0.828-0.7336zm-0.06802 5.1137 1.0351 3.8644-3.8644 1.0351-1.0351-3.8644 3.8644-1.0351z" fill="#fff"/>
</svg>
